X: 120719
T: Lough Muckno
S: "The Piper's Dream"
C: Pat McNulty
Z: B.Black
L: 1/8
M: C|
R: hornpipe
K: G
dc | BdcA BGAF | GB (3def g2 ed|cedB cABG|F2 A2 A2 dc|
BdcA BGAB|(3cde dB c2 Bc|dgfd ecAF|GB (3AGF G2 :|
FG|AFDF AB (3cBA|GB (3def g2 fg|afda bgdb|agfe d2 gf|
egce Gceg|dedB G2 Bc|dgfd ecAF|GB (3AGF G2 :|
